X: 077
T: the Spaw
B: 204 Favourite Country Dances
N: Published by Straight & Skillern, London ca.1775
F: http://imslp.org/wiki/204_Favourite_Country_Dances_(Various) p.39 #77
Z: 2014 John Chambers <jc:trillian.mit.edu>
M: 2/4
L: 1/16
K: C
% - - - - - - - - - - - - - - - - - - - - - - - - -
|:\
C2cB c2c2 | e2c2 e4 | g2e2 gfed | cBcd c2c2 |\
C2cB c2c2 | e2c2 e4 | g2f2e2d2 | c4 c4 |
f2f2e2e2 | f2f2 e4 | f2f2e2e2 | f2f2 e4 |\
C2cB c2c2 | e2c2 e4 | g2e2 gfed | c4 c4 |
F3GA2A2 | A2c2 c4 | A2c2 dc_BA | GFGA G2G2 |\
F3GA2A2 | A2c2 c4 | A2c2 dc_BA | A4 G4 |
G2A2_B2B2 | A2c2f2A2 | G2A2_B2B2 | A2c2 dc_BA |\
F2G2A2A2 | A2c2f2A2 | c2A2 c_BAG | F8 :|
% - - - - - - - - - - - - - - - - - - - - - - - - -
%%begintext align
%% Right hands across left hands back again .| lead down
%% the middle up again cast off 1 Cu. :| lead thro' sides on
%% the Wo.s then the Mens side Allemand with your Part:
%% Right and Left :|:
%%endtext

%%sep 1 1 500
%%sep 1 1 500
